Newaita-dark/apps/16/com.github.lainsce.coin.svg

<svg height="16" viewBox="0 0 16 16" width="16" xmlns="http://www.w3.org/2000/svg" xmlns:xlink="http://www.w3.org/1999/xlink"><linearGradient id="a"><stop offset="0" stop-opacity=".313726"/><stop offset=".222222" stop-opacity=".27451"/><stop offset="1" stop-opacity="0"/></linearGradient><radialGradient id="b" cx="450.908936" cy="189.579361" gradientTransform="matrix(.00000009 -.0390662 -.0703192 -.00000005 22.261576 31.797665)" gradientUnits="userSpaceOnUse" r="21.166656" xlink:href="#a"/><radialGradient id="c" cx="450.908936" cy="189.579361" gradientTransform="matrix(-.00000009 .0390662 .0703192 .00000005 -6.385059 -3.763741)" gradientUnits="userSpaceOnUse" r="21.166656" xlink:href="#a"/><radialGradient id="d" cx="450.908936" cy="189.579361" gradientTransform="matrix(-.00000009 -.0390662 .0703192 -.00000005 -6.385059 31.797665)" gradientUnits="userSpaceOnUse" r="21.166656" xlink:href="#a"/><radialGradient id="e" cx="450.908936" cy="189.579361" gradientTransform="matrix(.00000009 .0390662 -.0703192 .00000005 22.261575 -3.763741)" gradientUnits="userSpaceOnUse" r="21.166656" xlink:href="#a"/><linearGradient id="f" gradientTransform="matrix(.00668003 0 0 .031253 6.232693 6.719392)" gradientUnits="userSpaceOnUse" x1="255.323059" x2="255.323044" y1="233.5" y2="254.666656"><stop offset="0" stop-opacity=".27451"/><stop offset="1" stop-opacity="0"/></linearGradient><linearGradient id="g" gradientUnits="userSpaceOnUse" x1="7.938262" x2="7.938262" y1="1.44805249998" y2="14.0169675"><stop offset="0" stop-color="#ffb74d"/><stop offset="1" stop-color="#ffa726"/></linearGradient><linearGradient id="h" gradientTransform="matrix(.031253 0 0 -.031253 0 6.719392)" gradientUnits="userSpaceOnUse" x1="254" x2="254" y1="-201.75" y2="136.916672"><stop offset="0" stop-color="#e0e0e0"/><stop offset="1" stop-color="#bdbdbd"/></linearGradient><linearGradient id="i" gradientUnits="userSpaceOnUse" x1="7.938262" x2="7.938262" y1="1.44805249998" y2="14.0169675"><stop offset="0" stop-color="#616161"/><stop offset="1" stop-color="#424242"/></linearGradient><path d="m9.097656 14.015625h1.320313v-.660156h-1.320313zm0 0" fill="url(#b)"/><path d="m6.78125 14.015625h-1.324219v.664063h1.324219zm0 0" fill="url(#c)"/><path d="m6.78125 14.015625h-1.324219v-.660156h1.324219zm0 0" fill="url(#d)"/><path d="m9.097656 14.015625h1.320313v.664063h-1.320313zm0 0" fill="url(#e)"/><path d="m6.78125 13.851562h2.316406v.828126h-2.316406zm0 0" fill="url(#f)"/><path d="m7.9375 1.449219c3.472656 0 6.285156 2.8125 6.285156 6.285156 0 3.46875-2.8125 6.28125-6.285156 6.28125-3.46875 0-6.285156-2.8125-6.285156-6.28125 0-3.472656 2.816406-6.285156 6.285156-6.285156zm0 0" fill="url(#g)"/><path d="m7.9375 14.015625c-3.480469 0-6.285156-2.800781-6.285156-6.28125 0-.023437 0-.042969 0-.0625.035156 3.453125 2.824218 6.222656 6.285156 6.222656s6.253906-2.769531 6.285156-6.222656v.0625c0 3.480469-2.804687 6.28125-6.285156 6.28125zm0 0" fill-opacity=".196078"/><path d="m7.9375 1.449219c-3.480469 0-6.285156 2.800781-6.285156 6.285156v.058594c.035156-3.453125 2.824218-6.222657 6.285156-6.222657s6.253906 2.769532 6.285156 6.222657c0-.019531 0-.039063 0-.058594 0-3.484375-2.804687-6.285156-6.285156-6.285156zm0 0" fill="#fff" fill-opacity=".392157"/><path d="m7.9375 1.402344c-3.507812 0-6.332031 2.824218-6.332031 6.332031 0 3.503906 2.824219 6.328125 6.332031 6.328125s6.332031-2.824219 6.332031-6.328125c0-3.507813-2.824219-6.332031-6.332031-6.332031zm0 .09375c3.457031 0 6.238281 2.78125 6.238281 6.238281 0 3.453125-2.78125 6.234375-6.238281 6.234375s-6.238281-2.78125-6.238281-6.234375c0-3.457031 2.78125-6.238281 6.238281-6.238281zm0 0" fill="#212121"/><path d="m7.9375 13.023438c2.921875 0 5.292969-2.367188 5.292969-5.289063 0-2.925781-2.371094-5.292969-5.292969-5.292969s-5.292969 2.367188-5.292969 5.292969c0 2.921875 2.371094 5.289063 5.292969 5.289063zm0 0" fill="url(#h)"/><path d="m2.648438 7.855469c0 .042969-.003907.082031-.003907.125 0 2.933593 2.363281 5.292969 5.292969 5.292969 2.933594 0 5.292969-2.359376 5.292969-5.292969 0-.042969 0-.082031 0-.125-.066407 2.875-2.402344 5.167969-5.292969 5.167969s-5.222656-2.292969-5.289062-5.167969zm0 0" fill="#fff" fill-opacity=".392157"/><path d="m7.9375 2.441406c-2.929688 0-5.292969 2.359375-5.292969 5.292969 0 .023437 0 .050781.003907.078125.042968-2.890625 2.386718-5.207031 5.289062-5.207031 2.90625 0 5.246094 2.316406 5.292969 5.207031 0-.027344 0-.054688 0-.078125 0-2.933594-2.359375-5.292969-5.292969-5.292969zm0 0" fill-opacity=".235294"/><path d="m253.975747-201.710206c93.491072 0 169.358827 75.742767 169.358827 169.233839 0 93.61606-75.867755 169.358827-169.358827 169.358827-93.491073 0-169.358828-75.742767-169.358828-169.358827 0-93.491072 75.867755-169.233839 169.358828-169.233839zm0 0" fill="none" stroke="#212121" stroke-linecap="round" stroke-width="3" transform="matrix(.031253 0 0 -.031253 0 6.719392)"/><path d="m7.609375 4.425781h.660156c.183594 0 .332031.148438.332031.328125v5.957032c0 .179687-.148437.328124-.332031.328124h-.660156c-.183594 0-.332031-.148437-.332031-.328124v-5.957032c0-.179687.148437-.328125.332031-.328125zm0 0" fill="url(#i)"/><path d="m7.609375 4.425781c-.183594 0-.332031.148438-.332031.328125v.167969c0-.183594.148437-.332031.332031-.332031h.660156c.183594 0 .332031.148437.332031.332031v-.167969c0-.179687-.148437-.328125-.332031-.328125zm0 0" fill="#fff" fill-opacity=".392157"/><path d="m7.277344 10.710938v.246093c0 .183594.148437.332031.332031.332031h.660156c.183594 0 .332031-.148437.332031-.332031v-.246093c0 .183593-.148437.328124-.332031.328124h-.660156c-.183594 0-.332031-.144531-.332031-.328124zm0 0" fill-opacity=".235294"/><path d="m243.476749-73.388523h21.122983c5.874439 0 10.623985 4.749546 10.623985 10.498997v190.606798c0 5.749451-4.749546 10.498998-10.623985 10.498998h-21.122983c-5.874439 0-10.623985-4.749547-10.623985-10.498998v-190.606798c0-5.749451 4.749546-10.498997 10.623985-10.498997zm0 0" fill="none" stroke="#212121" stroke-linecap="round" stroke-linejoin="round" stroke-width="3" transform="matrix(.031253 0 0 .031253 0 6.719392)"/></svg>

<?xml version="1.0" encoding="UTF-8"?>
<svg xmlns="http://www.w3.org/2000/svg" xmlns:xlink="http://www.w3.org/1999/xlink" width="16px" height="16px" viewBox="0 0 16 16" version="1.1">
<defs>
<radialGradient id="radial0" gradientUnits="userSpaceOnUse" cx="450.908936" cy="189.579361" fx="450.908936" fy="189.579361" r="21.166656" gradientTransform="matrix(0.0000000870852,-0.0390662,-0.0703192,-0.0000000507693,22.261576,31.797665)">
<stop offset="0" style="stop-color:rgb(0%,0%,0%);stop-opacity:0.313726;"/>
<stop offset="0.222222" style="stop-color:rgb(0%,0%,0%);stop-opacity:0.27451;"/>
<stop offset="1" style="stop-color:rgb(0%,0%,0%);stop-opacity:0;"/>
</radialGradient>
<radialGradient id="radial1" gradientUnits="userSpaceOnUse" cx="450.908936" cy="189.579361" fx="450.908936" fy="189.579361" r="21.166656" gradientTransform="matrix(-0.0000000870852,0.0390662,0.0703192,0.0000000507693,-6.385059,-3.763741)">
<stop offset="0" style="stop-color:rgb(0%,0%,0%);stop-opacity:0.313726;"/>
<stop offset="0.222222" style="stop-color:rgb(0%,0%,0%);stop-opacity:0.27451;"/>
<stop offset="1" style="stop-color:rgb(0%,0%,0%);stop-opacity:0;"/>
</radialGradient>
<radialGradient id="radial2" gradientUnits="userSpaceOnUse" cx="450.908936" cy="189.579361" fx="450.908936" fy="189.579361" r="21.166656" gradientTransform="matrix(-0.0000000870852,-0.0390662,0.0703192,-0.0000000507693,-6.385059,31.797665)">
<stop offset="0" style="stop-color:rgb(0%,0%,0%);stop-opacity:0.313726;"/>
<stop offset="0.222222" style="stop-color:rgb(0%,0%,0%);stop-opacity:0.27451;"/>
<stop offset="1" style="stop-color:rgb(0%,0%,0%);stop-opacity:0;"/>
</radialGradient>
<radialGradient id="radial3" gradientUnits="userSpaceOnUse" cx="450.908936" cy="189.579361" fx="450.908936" fy="189.579361" r="21.166656" gradientTransform="matrix(0.0000000870852,0.0390662,-0.0703192,0.0000000507693,22.261575,-3.763741)">
<stop offset="0" style="stop-color:rgb(0%,0%,0%);stop-opacity:0.313726;"/>
<stop offset="0.222222" style="stop-color:rgb(0%,0%,0%);stop-opacity:0.27451;"/>
<stop offset="1" style="stop-color:rgb(0%,0%,0%);stop-opacity:0;"/>
</radialGradient>
<linearGradient id="linear0" gradientUnits="userSpaceOnUse" x1="255.323059" y1="233.5" x2="255.323044" y2="254.666656" gradientTransform="matrix(0.00668003,0,0,0.031253,6.232693,6.719392)">
<stop offset="0" style="stop-color:rgb(0%,0%,0%);stop-opacity:0.27451;"/>
<stop offset="1" style="stop-color:rgb(0%,0%,0%);stop-opacity:0;"/>
</linearGradient>
<linearGradient id="linear1" gradientUnits="userSpaceOnUse" x1="254" y1="-168.666672" x2="254" y2="233.5" gradientTransform="matrix(0.031253,0,0,0.031253,0,6.719392)">
<stop offset="0" style="stop-color:rgb(100%,71.764708%,30.19608%);stop-opacity:1;"/>
<stop offset="1" style="stop-color:rgb(100%,65.490198%,14.901961%);stop-opacity:1;"/>
</linearGradient>
<linearGradient id="linear2" gradientUnits="userSpaceOnUse" x1="254" y1="-201.75" x2="254" y2="136.916672" gradientTransform="matrix(0.031253,0,0,-0.031253,0,6.719392)">
<stop offset="0" style="stop-color:rgb(87.843138%,87.843138%,87.843138%);stop-opacity:1;"/>
<stop offset="1" style="stop-color:rgb(74.117649%,74.117649%,74.117649%);stop-opacity:1;"/>
</linearGradient>
<linearGradient id="linear3" gradientUnits="userSpaceOnUse" x1="254" y1="-168.666672" x2="254" y2="233.5" gradientTransform="matrix(0.031253,0,0,0.031253,0,6.719392)">
<stop offset="0" style="stop-color:rgb(38.039216%,38.039216%,38.039216%);stop-opacity:1;"/>
<stop offset="1" style="stop-color:rgb(25.882354%,25.882354%,25.882354%);stop-opacity:1;"/>
</linearGradient>
</defs>
<g id="surface1">
<path style=" stroke:none;fill-rule:nonzero;fill:url(#radial0);" d="M 9.097656 14.015625 L 10.417969 14.015625 L 10.417969 13.355469 L 9.097656 13.355469 Z M 9.097656 14.015625 "/>
<path style=" stroke:none;fill-rule:nonzero;fill:url(#radial1);" d="M 6.78125 14.015625 L 5.457031 14.015625 L 5.457031 14.679688 L 6.78125 14.679688 Z M 6.78125 14.015625 "/>
<path style=" stroke:none;fill-rule:nonzero;fill:url(#radial2);" d="M 6.78125 14.015625 L 5.457031 14.015625 L 5.457031 13.355469 L 6.78125 13.355469 Z M 6.78125 14.015625 "/>
<path style=" stroke:none;fill-rule:nonzero;fill:url(#radial3);" d="M 9.097656 14.015625 L 10.417969 14.015625 L 10.417969 14.679688 L 9.097656 14.679688 Z M 9.097656 14.015625 "/>
<path style=" stroke:none;fill-rule:nonzero;fill:url(#linear0);" d="M 6.78125 13.851562 L 9.097656 13.851562 L 9.097656 14.679688 L 6.78125 14.679688 Z M 6.78125 13.851562 "/>
<path style=" stroke:none;fill-rule:nonzero;fill:url(#linear1);" d="M 7.9375 1.449219 C 11.410156 1.449219 14.222656 4.261719 14.222656 7.734375 C 14.222656 11.203125 11.410156 14.015625 7.9375 14.015625 C 4.46875 14.015625 1.652344 11.203125 1.652344 7.734375 C 1.652344 4.261719 4.46875 1.449219 7.9375 1.449219 Z M 7.9375 1.449219 "/>
<path style=" stroke:none;fill-rule:nonzero;fill:rgb(0%,0%,0%);fill-opacity:0.196078;" d="M 7.9375 14.015625 C 4.457031 14.015625 1.652344 11.214844 1.652344 7.734375 C 1.652344 7.710938 1.652344 7.691406 1.652344 7.671875 C 1.6875 11.125 4.476562 13.894531 7.9375 13.894531 C 11.398438 13.894531 14.191406 11.125 14.222656 7.671875 C 14.222656 7.691406 14.222656 7.710938 14.222656 7.734375 C 14.222656 11.214844 11.417969 14.015625 7.9375 14.015625 Z M 7.9375 14.015625 "/>
<path style=" stroke:none;fill-rule:nonzero;fill:rgb(100%,100%,100%);fill-opacity:0.392157;" d="M 7.9375 1.449219 C 4.457031 1.449219 1.652344 4.25 1.652344 7.734375 C 1.652344 7.753906 1.652344 7.773438 1.652344 7.792969 C 1.6875 4.339844 4.476562 1.570312 7.9375 1.570312 C 11.398438 1.570312 14.191406 4.339844 14.222656 7.792969 C 14.222656 7.773438 14.222656 7.753906 14.222656 7.734375 C 14.222656 4.25 11.417969 1.449219 7.9375 1.449219 Z M 7.9375 1.449219 "/>
<path style=" stroke:none;fill-rule:nonzero;fill:rgb(12.941177%,12.941177%,12.941177%);fill-opacity:1;" d="M 7.9375 1.402344 C 4.429688 1.402344 1.605469 4.226562 1.605469 7.734375 C 1.605469 11.238281 4.429688 14.0625 7.9375 14.0625 C 11.445312 14.0625 14.269531 11.238281 14.269531 7.734375 C 14.269531 4.226562 11.445312 1.402344 7.9375 1.402344 Z M 7.9375 1.496094 C 11.394531 1.496094 14.175781 4.277344 14.175781 7.734375 C 14.175781 11.1875 11.394531 13.96875 7.9375 13.96875 C 4.480469 13.96875 1.699219 11.1875 1.699219 7.734375 C 1.699219 4.277344 4.480469 1.496094 7.9375 1.496094 Z M 7.9375 1.496094 "/>
<path style=" stroke:none;fill-rule:nonzero;fill:url(#linear2);" d="M 7.9375 13.023438 C 10.859375 13.023438 13.230469 10.65625 13.230469 7.734375 C 13.230469 4.808594 10.859375 2.441406 7.9375 2.441406 C 5.015625 2.441406 2.644531 4.808594 2.644531 7.734375 C 2.644531 10.65625 5.015625 13.023438 7.9375 13.023438 Z M 7.9375 13.023438 "/>
<path style=" stroke:none;fill-rule:nonzero;fill:rgb(100%,100%,100%);fill-opacity:0.392157;" d="M 2.648438 7.855469 C 2.648438 7.898438 2.644531 7.9375 2.644531 7.980469 C 2.644531 10.914062 5.007812 13.273438 7.9375 13.273438 C 10.871094 13.273438 13.230469 10.914062 13.230469 7.980469 C 13.230469 7.9375 13.230469 7.898438 13.230469 7.855469 C 13.164062 10.730469 10.828125 13.023438 7.9375 13.023438 C 5.046875 13.023438 2.714844 10.730469 2.648438 7.855469 Z M 2.648438 7.855469 "/>
<path style=" stroke:none;fill-rule:nonzero;fill:rgb(0%,0%,0%);fill-opacity:0.235294;" d="M 7.9375 2.441406 C 5.007812 2.441406 2.644531 4.800781 2.644531 7.734375 C 2.644531 7.757812 2.644531 7.785156 2.648438 7.8125 C 2.691406 4.921875 5.035156 2.605469 7.9375 2.605469 C 10.84375 2.605469 13.183594 4.921875 13.230469 7.8125 C 13.230469 7.785156 13.230469 7.757812 13.230469 7.734375 C 13.230469 4.800781 10.871094 2.441406 7.9375 2.441406 Z M 7.9375 2.441406 "/>
<path style="fill:none;stroke-width:3;stroke-linecap:round;stroke-linejoin:miter;stroke:rgb(12.941177%,12.941177%,12.941177%);stroke-opacity:1;stroke-miterlimit:4;" d="M 253.975747 -201.710206 C 347.466819 -201.710206 423.334574 -125.967439 423.334574 -32.476367 C 423.334574 61.139693 347.466819 136.88246 253.975747 136.88246 C 160.484674 136.88246 84.616919 61.139693 84.616919 -32.476367 C 84.616919 -125.967439 160.484674 -201.710206 253.975747 -201.710206 Z M 253.975747 -201.710206 " transform="matrix(0.031253,0,0,-0.031253,0,6.719392)"/>
<path style=" stroke:none;fill-rule:nonzero;fill:url(#linear3);" d="M 7.609375 4.425781 L 8.269531 4.425781 C 8.453125 4.425781 8.601562 4.574219 8.601562 4.753906 L 8.601562 10.710938 C 8.601562 10.890625 8.453125 11.039062 8.269531 11.039062 L 7.609375 11.039062 C 7.425781 11.039062 7.277344 10.890625 7.277344 10.710938 L 7.277344 4.753906 C 7.277344 4.574219 7.425781 4.425781 7.609375 4.425781 Z M 7.609375 4.425781 "/>
<path style=" stroke:none;fill-rule:nonzero;fill:rgb(100%,100%,100%);fill-opacity:0.392157;" d="M 7.609375 4.425781 C 7.425781 4.425781 7.277344 4.574219 7.277344 4.753906 L 7.277344 4.921875 C 7.277344 4.738281 7.425781 4.589844 7.609375 4.589844 L 8.269531 4.589844 C 8.453125 4.589844 8.601562 4.738281 8.601562 4.921875 L 8.601562 4.753906 C 8.601562 4.574219 8.453125 4.425781 8.269531 4.425781 Z M 7.609375 4.425781 "/>
<path style=" stroke:none;fill-rule:nonzero;fill:rgb(0%,0%,0%);fill-opacity:0.235294;" d="M 7.277344 10.710938 L 7.277344 10.957031 C 7.277344 11.140625 7.425781 11.289062 7.609375 11.289062 L 8.269531 11.289062 C 8.453125 11.289062 8.601562 11.140625 8.601562 10.957031 L 8.601562 10.710938 C 8.601562 10.894531 8.453125 11.039062 8.269531 11.039062 L 7.609375 11.039062 C 7.425781 11.039062 7.277344 10.894531 7.277344 10.710938 Z M 7.277344 10.710938 "/>
<path style="fill:none;stroke-width:3;stroke-linecap:round;stroke-linejoin:round;stroke:rgb(12.941177%,12.941177%,12.941177%);stroke-opacity:1;stroke-miterlimit:4;" d="M 243.476749 -73.388523 L 264.599732 -73.388523 C 270.474171 -73.388523 275.223717 -68.638977 275.223717 -62.889526 L 275.223717 127.717272 C 275.223717 133.466723 270.474171 138.21627 264.599732 138.21627 L 243.476749 138.21627 C 237.60231 138.21627 232.852764 133.466723 232.852764 127.717272 L 232.852764 -62.889526 C 232.852764 -68.638977 237.60231 -73.388523 243.476749 -73.388523 Z M 243.476749 -73.388523 " transform="matrix(0.031253,0,0,0.031253,0,6.719392)"/>
</g>
</svg>
